dist/img/partner_3.svg

<svg width="99" height="30" viewBox="0 0 99 30" fill="none" xmlns="http://www.w3.org/2000/svg">
<g clip-path="url(#clip0)">
<path d="M88.0492 21.9057L97.141 21.9491C97.1961 21.9491 97.2489 21.971 97.2878 22.0099C97.3268 22.0489 97.3487 22.1017 97.3487 22.1568L97.3332 24.4879C97.3324 24.543 97.3104 24.5957 97.2717 24.635C97.233 24.6742 97.1806 24.6971 97.1255 24.6987L82.2154 24.897C82.1597 24.8971 82.1062 24.8754 82.0663 24.8366C82.0263 24.7978 82.0031 24.745 82.0015 24.6894C82.001 24.6462 82.014 24.6039 82.0387 24.5685L92.4448 9.29877C92.4661 9.26715 92.4784 9.23033 92.4804 9.19224C92.4825 9.15416 92.4742 9.11624 92.4563 9.08251C92.4385 9.04879 92.4119 9.02053 92.3793 9.00075C92.3467 8.98097 92.3093 8.97041 92.2712 8.97019H83.3406C83.2852 8.96863 83.2325 8.94592 83.1933 8.90673C83.1541 8.86753 83.1314 8.81482 83.1298 8.75941V6.25476C83.1294 6.22696 83.1346 6.19936 83.145 6.1736C83.1555 6.14784 83.171 6.12443 83.1906 6.10478C83.2103 6.08512 83.2337 6.06961 83.2594 6.05916C83.2852 6.04872 83.3128 6.04355 83.3406 6.04397H97.9407C97.9967 6.04397 98.0503 6.06618 98.0898 6.10571C98.1293 6.14524 98.1515 6.19885 98.1515 6.25476C98.1506 6.29677 98.1377 6.33764 98.1143 6.37255L87.8849 21.5802C87.8676 21.6106 87.8582 21.6449 87.8577 21.6799C87.8571 21.7149 87.8654 21.7495 87.8818 21.7804C87.8982 21.8113 87.9222 21.8376 87.9514 21.8568C87.9807 21.876 88.0143 21.8875 88.0492 21.8902V21.9057Z" fill="white"/>
<path d="M80.4053 16.0947H71.9057C71.8132 16.0947 71.7383 16.1697 71.7383 16.2621V18.1995C71.7383 18.2919 71.8132 18.3669 71.9057 18.3669H80.4053C80.4978 18.3669 80.5727 18.2919 80.5727 18.1995V16.2621C80.5727 16.1697 80.4978 16.0947 80.4053 16.0947Z" fill="white"/>
<path d="M55.8826 11.082H53.13C52.9913 11.082 52.8789 11.1944 52.8789 11.3331V24.5476C52.8789 24.6863 52.9913 24.7987 53.13 24.7987H55.8826C56.0213 24.7987 56.1337 24.6863 56.1337 24.5476V11.3331C56.1337 11.1944 56.0213 11.082 55.8826 11.082Z" fill="white"/>
<path d="M54.4842 8.86248C55.5833 8.86248 56.4743 7.97149 56.4743 6.8724C56.4743 5.77331 55.5833 4.88232 54.4842 4.88232C53.3851 4.88232 52.4941 5.77331 52.4941 6.8724C52.4941 7.97149 53.3851 8.86248 54.4842 8.86248Z" fill="white"/>
<path d="M61.6081 7.94434H64.277C64.3288 7.94434 64.3785 7.96491 64.4151 8.00153C64.4517 8.03816 64.4723 8.08783 64.4723 8.13962V11.0008C64.4723 11.0534 64.4932 11.1038 64.5304 11.141C64.5676 11.1782 64.6181 11.1991 64.6707 11.1991H69.0104C69.0625 11.1991 69.1125 11.2196 69.1496 11.2561C69.1868 11.2927 69.208 11.3424 69.2088 11.3944V13.5395C69.208 13.5916 69.1868 13.6412 69.1496 13.6778C69.1125 13.7143 69.0625 13.7348 69.0104 13.7348H64.7296C64.7035 13.7367 64.6781 13.7438 64.6548 13.7557C64.6314 13.7675 64.6107 13.7838 64.5937 13.8037C64.5767 13.8236 64.5638 13.8466 64.5557 13.8715C64.5477 13.8964 64.5446 13.9226 64.5467 13.9487V20.0832C64.5467 20.0832 64.5746 22.4856 67.0545 22.591C67.0545 22.591 67.8542 22.7119 68.8276 21.971C68.8701 21.9399 68.9231 21.9267 68.9753 21.9342C69.0274 21.9418 69.0745 21.9694 69.1065 22.0113C69.1205 22.0311 69.131 22.0531 69.1375 22.0764L69.6459 23.9146C69.6559 23.9516 69.6547 23.9908 69.6426 24.0271C69.6305 24.0635 69.6079 24.0955 69.5777 24.1192C69.2305 24.392 67.9844 25.2289 65.9199 25.108C65.9199 25.108 61.6825 24.9933 61.5089 20.7032V13.927C61.5089 13.8744 61.488 13.8239 61.4508 13.7867C61.4136 13.7495 61.3631 13.7286 61.3105 13.7286H60.0861C60.034 13.7286 59.984 13.7081 59.9469 13.6716C59.9098 13.635 59.8885 13.5854 59.8877 13.5333V11.6021C59.8877 11.5495 59.9086 11.499 59.9458 11.4618C59.983 11.4246 60.0335 11.4037 60.0861 11.4037H61.2268C61.2789 11.4037 61.3289 11.3833 61.366 11.3467C61.4031 11.3102 61.4244 11.2605 61.4252 11.2084V8.13962C61.4251 8.08991 61.444 8.04203 61.4779 8.00574C61.5119 7.96945 61.5585 7.94749 61.6081 7.94434Z" fill="white"/>
<path d="M24.001 14.4897C24.001 14.4897 26.1522 12.853 26.1305 8.2281C26.1305 8.2281 26.3723 3.45438 21.0902 1.01483C19.549 0.326616 17.8772 -0.0202218 16.1894 -0.00190837H0.820545C0.711644 -0.00958484 0.604145 0.0262451 0.521627 0.0977221C0.439109 0.169199 0.388309 0.270487 0.380371 0.379369L0.380371 29.6106C0.387542 29.7195 0.437569 29.8211 0.519493 29.8931C0.601418 29.9652 0.708559 30.0018 0.817445 29.995L16.7009 29.902C19.2892 29.9268 21.9024 29.4215 23.939 28.0142C25.836 26.6906 26.9241 25.274 27.3488 21.9696C27.3488 21.9696 28.071 17.1835 24.001 14.4897ZM19.5465 10.7947L11.9892 19.0248H19.5465V22.2393H6.40951V19.5672L14.159 11.2349H6.40951V8.2126H19.5465V10.7947Z" fill="white"/>
<path d="M45.8824 15.3541C45.8824 15.3541 48.5792 14.1669 48.5668 11.2995C48.5651 10.3745 48.31 9.46756 47.829 8.67732C47.3481 7.88709 46.6599 7.24375 45.839 6.81719C45.0179 6.39837 44.1072 6.1856 43.1856 6.19723H34.8564C34.8249 6.19681 34.7937 6.2027 34.7646 6.21455C34.7354 6.2264 34.7089 6.24396 34.6867 6.26621C34.6644 6.28846 34.6469 6.31494 34.635 6.34408C34.6232 6.37323 34.6173 6.40446 34.6177 6.43592V24.5574C34.6177 24.6199 34.6425 24.6798 34.6867 24.724C34.7309 24.7682 34.7908 24.793 34.8533 24.793L43.4677 24.7372C44.8696 24.7579 46.2358 24.2949 47.3362 23.426C48.3623 22.6077 49.3356 21.3832 49.3232 19.7062C49.317 19.6969 49.472 16.8916 45.8824 15.3541ZM37.9252 8.84447H42.2494C42.7095 8.83938 43.1669 8.91492 43.6009 9.06766C43.8789 9.16929 44.141 9.31021 44.379 9.48613C44.6319 9.67745 44.8446 9.91684 45.0048 10.1906C45.165 10.4643 45.2695 10.7669 45.3124 11.0811C45.3553 11.3954 45.3358 11.715 45.2548 12.0216C45.1739 12.3283 45.0332 12.6159 44.8409 12.868C44.7391 13.0044 44.6227 13.1291 44.4937 13.24C44.3691 13.3554 44.2342 13.4591 44.0907 13.55C43.7061 13.7631 43.2718 13.87 42.8322 13.86H37.9252V8.84447ZM45.1447 21.3863C44.6412 21.8292 43.9892 22.0661 43.3189 22.0497H37.9252V16.6839H42.6772C43.1822 16.6776 43.6845 16.7583 44.162 16.9226C44.4656 17.0276 44.7535 17.1736 45.0176 17.3566C45.2887 17.5507 45.519 17.7963 45.6952 18.0795C45.8714 18.3626 45.9901 18.6777 46.0445 19.0067C46.0989 19.3358 46.088 19.6723 46.0123 19.9971C45.9366 20.3219 45.7977 20.6286 45.6034 20.8997C45.4719 21.0808 45.3177 21.2443 45.1447 21.3863Z" fill="white"/>
</g>
<defs>
<clipPath id="clip0">
<rect width="97.7712" height="30" fill="white" transform="translate(0.380371)"/>
</clipPath>
</defs>
</svg>

<svg width="99" height="30" fill="none" xmlns="http://www.w3.org/2000/svg"><g clip-path="url(#clip0)" fill="#fff"><path d="M88.05 21.906l9.091.043a.208.208 0 01.208.208l-.016 2.33a.214.214 0 01-.207.212l-14.91.198a.213.213 0 01-.215-.208c0-.043.013-.085.038-.12l10.406-15.27a.21.21 0 00-.174-.329h-8.93a.217.217 0 01-.211-.21V6.254a.209.209 0 01.21-.211h14.6a.21.21 0 01.174.329L87.884 21.58a.208.208 0 00.165.31v.016zm-7.645-5.811h-8.5a.167.167 0 00-.167.167V18.2c0 .092.075.167.168.167h8.5a.167.167 0 00.167-.168v-1.937a.167.167 0 00-.168-.167zm-24.522-5.013H53.13a.251.251 0 00-.251.251v13.215c0 .138.112.25.251.25h2.753a.251.251 0 00.25-.25V11.333a.251.251 0 00-.25-.251zm-1.399-2.22a1.99 1.99 0 100-3.98 1.99 1.99 0 000 3.98zm7.124-.918h2.669a.195.195 0 01.195.196V11a.198.198 0 00.199.2h4.34a.199.199 0 01.198.194v2.146a.198.198 0 01-.199.195h-4.28a.196.196 0 00-.136.069.2.2 0 00-.047.145v6.134s.028 2.403 2.508 2.508c0 0 .8.12 1.773-.62a.202.202 0 01.278.04.21.21 0 01.032.065l.508 1.839a.195.195 0 01-.068.204c-.347.273-1.594 1.11-3.658.989 0 0-4.238-.115-4.411-4.405v-6.776a.198.198 0 00-.199-.198h-1.224a.199.199 0 01-.198-.196v-1.93a.198.198 0 01.198-.2h1.14a.198.198 0 00.2-.195V8.14a.196.196 0 01.182-.196zM24.001 14.49s2.151-1.637 2.13-6.262c0 0 .241-4.774-5.04-7.213a11.708 11.708 0 00-4.902-1.017H.821A.412.412 0 00.38.38v29.232a.412.412 0 00.436.384l15.884-.093c2.588.025 5.201-.48 7.238-1.888 1.897-1.323 2.985-2.74 3.41-6.044 0 0 .722-4.787-3.348-7.48zm-4.454-3.695l-7.558 8.23h7.558v3.214H6.41v-2.672l7.749-8.332h-7.75V8.213h13.138v2.582zm26.335 4.559s2.697-1.187 2.685-4.054a5.061 5.061 0 00-2.728-4.483 5.682 5.682 0 00-2.653-.62h-8.33a.235.235 0 00-.238.239v18.121a.236.236 0 00.235.236l8.615-.056a6.097 6.097 0 003.868-1.311c1.026-.818 2-2.043 1.987-3.72-.006-.01.149-2.814-3.44-4.352zm-7.957-6.51h4.324c.46-.005.918.07 1.352.224a3.1 3.1 0 01.778.418 2.409 2.409 0 01.462 3.382 2.322 2.322 0 01-.347.372 2.79 2.79 0 01-.403.31 2.48 2.48 0 01-1.259.31h-4.907V8.844zm7.22 12.542a2.666 2.666 0 01-1.826.664h-5.394v-5.366h4.752a4.395 4.395 0 011.485.239c.304.105.592.25.856.434a2.538 2.538 0 01.127 4.03z"/></g><defs><clipPath id="clip0"><path fill="#fff" transform="translate(.38)" d="M0 0h97.771v30H0z"/></clipPath></defs></svg>
